X:3
T:Radical Road, The
M:5/4
L:1/8
K:AMix
ecA ecA AA c2|ecA ecA dfce|ecA ecA AA c2|\
dfd cec B2A2:|
A2 e2 cAA ccc|A2 e2 BGG BBB|A2 e2 cAA ccc|\
dfd cec B2A2:|
ecA ecA AA c2|ecA aec dfaf|ecA ecA AA c2|\
dfd cec B2A2:|
